X: 1429
T: First of May
B: australian traditional tunes wiki
M:2/4
L:1/8
R: Reel
Q: 1/4=100
K:D
V:1 
"D"FA AA|"G"(3BcB "A"A>A|"D"dc de|f2a2|(3faf "F#m"fc|"Bm"d2dc|ec AF|"Em7"G4"A7"|
"D"FA AA|"G"(3BcB "A"A>A|"D"dc de|f2a2|(3faf "F#m"fc|"Bm"df "A"ec|"F#m"c2A2|A3f/g/||
|:"D"a2af|"A7"gf ge|"G"dB GB|"C"=c2 "(A7)"fg|"D"af "A7"ge|"D"d2df|"Em7"ed "A7"cA|G4:|
% abcbook-tune_id 6342d53ac163ad6394fbfbd9


% abcbook-boost 0
% abcbook-tablature 
% abcbook-transpose 
% abcbook-lastupdated 1665324364721
% abcbook-soundfonts 
% abcbook-repeats 1
% NFF Book 2019

